X:1
T:Jesu Salvator Noster
T:JESU SALVATOR NOSTER Jesus du unser Heiland
T:Sammlung MUSICA SACRA, 1856 - No. 40
T:Bartolomeo CORDANS
T:© Edition Monika Feinen, Creative Commons Attribution-NonCommercial-ShareAlike 4.0
T:© Edition Monika Feinen, Creative Commons Attribution-NonCommercial-ShareAlike 4.0
T:© Edition Monika Feinen, Creative Commons Attribution-NonCommercial-ShareAlike 4.0
T:© Edition Monika Feinen, Creative Commons Attribution-NonCommercial-ShareAlike 4.0
C:Bartolomeo Cordans
Z:© Edition Monika Feinen, Creative Commons Attribution-NonCommercial-ShareAlike 4.0
%%score [ 1 2 3 ] 4
L:1/8
M:4/2
K:Bb
V:1 treble-8 nm="TENORE I."
V:2 treble-8 nm="TENORE II."
V:3 bass nm="BASSO."
V:4 bass nm="ORGANO."
V:1
 d8 d8 | z4 d4 d4 d4 | d4 c4 d8 | d4 f4 g3 g g4 | c6 c2 d8 | e4 e2 e2 =e4 e4 | f6 f2 f8 | %7
w: Je- su|sal- va- tor|no- * ster|tu- is fa- mu- lis|sub- ve- ni|quos pre- ti- o- so|san- gui- ne|
w: Je- sus,|du un- ser|Hei- * land,|sen- de Hil- fe und|Bei- stand uns,|die du mit dei- nem|teu- ren Blut,|
 f4 f2 f2 ^f4 f4 | g3 d d4 e4 e4 | A4 B4 A8 | !fermata!G16 ||[K:C] e8 e8 | e8 e8 | f8 e8 | e12 d4 | %15
w: quos pre- ti- o- so|san- gui- ne re- de-|mi- * *|sti.|Par- ce|quae- so|ho- ne|De- *|
w: die du mit dei- nem|teu- ren Blut einst er-|lö- * *|set.|Scho- ne,|Herr, o|schon' uns|Sün- *|
 e4"^SOLO." e8 e4 | f8 e8 | d4 e4 d8 | e4"^TUTTI."!f! e8 e4 | d8 d8 | e8 d6 d2 | d8"^SOLO."!p! d8 | %22
w: us par- ce|quae- so|ho- ne De-|us par- ce|tu- is|fa- * mu-|lis, quos|
w: der, scho- ne|Herr, o|schon' uns Sün-|der, scho- ne|dei- ne|Die- * ner|all, die|
 d4 e4 f4 e2 d2 | e6 e2 d4"^TUTTI."!f! d4 | d4 d4 e4 e4 | d6 d2 g8 | e4 f4 d8 | %27
w: pre- ti- o- so _|san- gui- ne quos|pre- ti- o- so|san- gui- ne|re- de- mi-|
w: du mit dei- nem _|teu- ren Blut, die|du mit dei- nem|teu- ren Blut|einst er- lö-|
 e4"^SOLO."!p! e8 e4 | f4 f4 e6 c2 | B4 c2 d2 e8 | f2 e2 d2 c2 B8 | c4"^TUTTI." e8 e4 | %32
w: sti pre- ti-|o- so san- gui-|ne re- * *|de- * * * mi-|sti, pre- ti-|
w: set, die mit|dei- nem teu- ren|Blut du _ einst|er- * * * lö-|set, die mit|
 e4 e4 e6 e2 | e8 f2 e2 d2 c2 | B4 c8 B4 | c4 f8 e4 | f16 | !fermata!e16 |] %38
w: o- so san- gui-|ne re- * de- *|mi- * *|sti re- de-|mi-|sti.|
w: dei- nem Blut du|einst er- * * *|lö- * *|set, einst er-|lö-|set.|
V:2
 B8 A8 | z4 d4 c4 B4 | G8 A8 | B4 B4 B3 B B4 | B4 A2 A2 B8 | B4 B2 B2 c4 c4 | A6 A2 A8 | %7
w: Je- su|sal- va- tor|no- ster|tu- is fa- mu- lis|sub- * ve- ni|quos pre- ti- o- so|san- gui- ne|
w: Je- sus,|du un- ser|Hei- land,|sen- de Hil- fe und|Bei- * stand uns,|die du mit dei- nem|teu- ren Blut,|
 A4 A2 A2 A4 A4 | B3 B B4 c4 G4 | ^F4 G8 F4 | !fermata!G16 ||[K:C] c8 B8 | c8 c8 | d8 B8 | %14
w: quos pre- ti- o- so|san- gui- ne re- de-|mi- * *|sti.|Par- ce|quae- so|ho- ne|
w: die du mit dei- nem|teu- ren Blut einst er-|lö- * *|set.|Scho- ne,|Herr, o|schon' uns|
 c6 B2 A8 | ^G4"^SOLO." =G8 G4 | A8 G8 | B4 c4 c4 B4 | c4"^TUTTI."!f! c8 c4 | A8 B8 | c8 A6 A2 | %21
w: De- * *|us par- ce|quae- so|ho- ne De- *|us par- ce|tu- is|fa- * mu-|
w: Sün- * *|der, scho- ne|Herr, o|schon' uns Sün- *|der, scho- ne|dei- ne|Die- * ner|
 B8"^SOLO."!p! B8 | B4 c4 d4 c2 B2 | c6 c2 B4"^TUTTI."!f! B4 | G4 B4 c4 c4 | B6 B2 c8 | %26
w: lis, quos|pre- ti- o- so _|san- gui- ne quos|pre- ti- o- so|san- gui- ne|
w: all, die|du mit dei- nem _|teu- ren Blut, die|du mit dei- nem|teu- ren Blut|
 c4 c4 c4 B4 | c4"^SOLO."!p! G8 G4 | A4 A4 ^G6 A2 | ^G4 A2 B2 c8 | d2 c2 B2 A2 ^G8 | %31
w: re- de- mi- *|sti pre- ti-|o- so san- gui-|ne re- * *|de- * * * mi-|
w: einst er- lö- *|set, die mit|dei- nem teu- ren|Blut du _ einst|er- * * * lö-|
 A4"^TUTTI." c8 c4 | B4 B4 c6 c2 | c8 d2 c2 B2 A2 | ^G4 A8 G4 | A4 A8 A4 | A8 d8 | !fermata!^c16 |] %38
w: sti, pre- ti-|o- so san- gui-|ne re- * de- *|mi- * *|sti re- de-|mi- *|sti.|
w: set, die mit|dei- nem Blut du|einst er- * * *|lö- * *|set, einst er-|lö- *|set.|
V:3
 G,8 ^F,8 | z4 B,4 A,4 G,4 | E,8 D,8 | B,,4 B,,4 E,3 E, E,4 | F,6 F,2 B,,8 | E,4 E,2 E,2 C,4 C,4 | %6
w: Je- su|sal- va- tor|no- ster|tu- is fa- mu- lis|sub- ve- ni|quos pre- ti- o- so|
w: Je- sus,|du un- ser|Hei- land,|sen- de Hil- fe und|Bei- stand uns,|die du mit dei- nem|
 F,6 F,2 F,8 | F,4 F,2 F,2 D,4 D,4 | G,3 G, G,4 E,4 C,4 | D,16 | !fermata!G,,16 ||[K:C] A,12 ^G,4 | %12
w: san- gui- ne|quos pre- ti- o- so|san- gui- ne re- de-|mi-|sti.|Par- ce|
w: teu- ren Blut,|die du mit dei- nem|teu- ren Blut einst er-|lö-|set.|Scho- ne,|
 A,8 A,8 | D,8 E,8 | A,6 G,2 F,8 | E,4"^SOLO." C,8 C,4 | F,8 C,8 | G,4 E,2 F,2 G,8 | %18
w: quae- so|ho- ne|De- * *|us par- ce|quae- so|ho- ne _ De-|
w: Herr, o|schon' uns|Sün- * *|der, scho- ne|Herr, o|schon' uns _ Sün-|
 C,4"^TUTTI."!f! C,8 C,4 | D,8 G,8 | C,8 D,6 D,2 | G,8"^SOLO."!p! G,8 | G,4 G,4 G,4 G,4 | %23
w: us par- ce|tu- is|fa- * mu-|lis, quos|pre- ti- o- so|
w: der, scho- ne|dei- ne|Die- * ner|all, die|du mit dei- nem|
 C,6 C,2 G,4"^TUTTI."!f! G,4 | B,4 G,4 C4 C,4 | G,6 F,2 E,8 | A,4 F,4 G,8 | %27
w: san- gui- ne quos|pre- ti- o- so|san- gui- ne|re- de- mi-|
w: teu- ren Blut, die|du mit dei- nem|teu- ren Blut|einst er- lö-|
 C,4"^SOLO."!p! C,8 C,4 | F,4 D,4 E,6 E,2 | E,4 A,6 G,2 F,2 E,2 | D,4 D,4 E,8 | %31
w: sti pre- ti-|o- so san- gui-|ne re- * * *|* de- mi-|
w: set, die mit|dei- nem teu- ren|Blut du _ _ _|einst er- lö-|
 A,,4"^TUTTI." A,8 A,4 | G,4 E,4 A,6 A,2 | A,8 D,4 D,4 | E,16 | A,,4 D,8 ^C,4 | D,16 | %37
w: sti, pre- ti-|o- so san- gui-|ne re- de-|mi-|sti re- de-|mi-|
w: set, die mit|dei- nem Blut du|einst er- *|lö-|set, einst er-|lö-|
 !fermata!A,,16 |] %38
w: sti.|
w: set.|
V:4
 G,8 ^F,8 | G,4 B,4 A,4 G,4 | E,8 D,8 | B,,8 E,8 | F,8 B,,8 | E,4 E,4 C,4 C,4 | F,8 F,8 | %7
 F,4 F,4 D,4 D,4 | G,4 G,4 E,4 C,4 | D,16 | !fermata!G,,16 ||[K:C] A,12 ^G,4 | A,8 A,8 | D,8 E,8 | %14
 A,6 G,2 F,8 | E,4"^SOLO." C,8 C,4 | F,8 C,8 | G,4 E,2 F,2 G,8 | C,4!f!"^TUTTI." C,8 C,4 | %19
 D,8 G,8 | C,8 D,6 D,2 | G,8!p!"^SOLO." G,8 | G,4 G,4 G,4 G,4 | C,6 C,2 G,4!f!"^TUTTI." G,4 | %24
 B,4 G,4 C4 C,4 | G,6 F,2 E,8 | A,4 F,4 G,8 | C,4"^SOLO."!p! C,8 C,4 | F,4 D,4 E,6 E,2 | %29
 E,4 A,6 G,2 F,2 E,2 | D,4 D,4 E,8 | A,,4"^TUTTI." A,8 A,4 | G,4 E,4 A,6 A,2 | A,8 D,4 D,4 | E,16 | %35
 A,,4 D,8 ^C,4 | D,16 | !fermata!A,,16 |] %38

